src/icons/r-entries.svg

<svg width="210mm" height="210mm" viewBox="0 0 210 210">
  <path fill="currentColor"
    d="M 179.64798,190.05575 105.53983,115.9476 94.166236,127.32119 140.58968,173.74464 H 83.671168 V 137.72059 L 47.65639,173.73537 H 36.067838 V 111.82103 L 68.755796,79.133072 19.732545,30.109821 V 190.05455 Z" />
  <path fill="currentColor"
    d="m 38.923214,19.740778 44.68642,44.686419 V 36.074283 H 173.7527 V 154.55862 l 16.33978,16.33978 V 19.694005 H 38.874112 Z" />
  <rect fill="currentColor" width="10.384895" height="17.644402" x="129.05052" y="49.014061" />
  <rect fill="currentColor" width="10.384895" height="17.644402" x="128.98438" y="77.126038" />
  <path fill="currentColor" d="m 129.01745,105.22148 v 4.63021 l 10.37662,10.37663 v -15.02337 z" />
</svg>

<svg width="210mm" height="210mm" version="1.1" viewBox="0 0 210 210" xml:space="preserve"
    xmlns="http://www.w3.org/2000/svg">
    <g fill="currentColor">
        <path
            d="m179.65 190.06-74.108-74.108-11.374 11.374 46.423 46.423h-56.919v-36.024l-36.015 36.015h-11.589v-61.914l32.688-32.688-49.023-49.023v159.94z" />
        <path d="m38.923 19.741 44.686 44.686v-28.353h90.143v118.48l16.34 16.34v-151.2h-151.22z" />
        <rect x="129.05" y="49.014" width="10.385" height="17.644" />
        <rect x="128.98" y="77.126" width="10.385" height="17.644" />
        <path d="m129.02 105.22v4.6302l10.377 10.377v-15.023z" />
    </g>
</svg>
